X: 1
T: Kathleen Hehir's
R: slide
M: 12/8
L: 1/8
K: Dmaj
|dcd e2d c2E EFG | ~B3 BAG F2D DFA |
dcd e2d c2E EFG | ABA GFE D DFA :|
|:F2A d3 c2B G3 | ABA G2E B2A F3 |
DFA dz2 c2B G2F | EFG ABc d3 d2A:|
|:ddd d2e f2d A3 | ~f3 fed c2d ecA |
ddd d2e f2d A2F |1 EFG ABc d3 d2 A:|2 EFG ABc d3 dfg||
|:a2f f2d Adf agf | g2e e2c Bcd efg |
a2f f2d Adf agf | gec ABc d3 dfg:||


Tune 157	Setting 12780

